assets/svg/networks/wallet_stargate.svg

<svg width="36" height="36" viewBox="0 0 36 36" fill="none" xmlns="http://www.w3.org/2000/svg">
<g clip-path="url(#clip0_21224_78190)">
<rect width="36" height="36" rx="12" fill="#191818"/>
<path d="M20.3794 6.96907L21.018 8.47423C22.2747 11.4021 24.6026 13.7526 27.5485 15.0103L29.0524 15.6495C29.4438 15.8144 29.7528 16.0619 30 16.3505C29.2584 11.0103 25.0352 6.7835 19.6996 6.04124C19.9674 6.26804 20.2146 6.57732 20.3794 6.96907ZM6.96824 15.6289L8.4721 14.9897C11.3974 13.732 13.7459 11.4021 15.0026 8.45361L15.6412 6.94845C15.7854 6.57732 16.0326 6.24742 16.3416 6C11.006 6.74227 6.78283 10.9691 6.0412 16.3093C6.26781 16.0412 6.57682 15.7938 6.96824 15.6289ZM29.0318 20.3918L27.5279 21.0309C24.6026 22.2887 22.2541 24.6186 20.9974 27.567L20.3588 29.0515C20.2146 29.4227 19.9674 29.7526 19.6584 30C24.994 29.2577 29.2172 25.0309 29.9588 19.6907C29.7322 20 29.4026 20.2474 29.0318 20.3918ZM15.6206 29.0515L14.982 27.567C13.7253 24.6392 11.3974 22.2887 8.4515 21.0309L6.94764 20.3918C6.57682 20.2474 6.24721 20 6 19.6907C6.74163 25.0309 10.9648 29.2577 16.3004 30C16.012 29.7526 15.7854 29.4227 15.6206 29.0515Z" fill="#999999"/>
<path d="M12.5717 16.8454L13.3134 16.5361C14.7554 15.9176 15.9091 14.7629 16.5271 13.3196L16.8361 12.5774C17.2687 11.5464 18.7314 11.5464 19.1846 12.5774L19.4936 13.3196C20.1116 14.7629 21.2653 15.9176 22.7073 16.5361L23.449 16.8454C24.479 17.2784 24.479 18.7423 23.449 19.1959L22.7073 19.5052C21.2653 20.1238 20.1116 21.2784 19.4936 22.7217L19.1846 23.464C18.752 24.4949 17.2893 24.4949 16.8361 23.464L16.5271 22.7217C15.9091 21.2784 14.7554 20.1238 13.3134 19.5052L12.5717 19.1959C11.5417 18.7423 11.5417 17.2784 12.5717 16.8454Z" fill="white"/>
</g>
<defs>
<clipPath id="clip0_21224_78190">
<rect width="36" height="36" fill="white"/>
</clipPath>
</defs>
</svg>

<svg xmlns="http://www.w3.org/2000/svg" width="36" height="36" fill="none"><g clip-path="url(#a)"><rect width="36" height="36" fill="#191818" rx="12"/><path fill="#999" d="m20.38 6.97.638 1.504a12.43 12.43 0 0 0 6.53 6.536l1.504.64c.392.164.7.412.948.7-.742-5.34-4.965-9.567-10.3-10.309.267.227.515.536.68.928M6.967 15.628l1.504-.64a12.43 12.43 0 0 0 6.53-6.535l.64-1.506c.143-.37.39-.7.7-.948-5.336.742-9.56 4.97-10.3 10.31.226-.269.535-.516.926-.681m22.064 4.763-1.504.639a12.43 12.43 0 0 0-6.53 6.536l-.64 1.485a2.3 2.3 0 0 1-.7.948c5.336-.742 9.56-4.97 10.3-10.31-.226.31-.555.557-.926.702m-13.411 8.66-.639-1.485a12.43 12.43 0 0 0-6.53-6.536l-1.504-.64c-.371-.144-.7-.391-.948-.7.742 5.34 4.965 9.567 10.3 10.309a2.7 2.7 0 0 1-.68-.948"/><path fill="#fff" d="m12.572 16.845.741-.309a6.13 6.13 0 0 0 3.214-3.216l.31-.743c.432-1.03 1.894-1.03 2.348 0l.309.743a6.13 6.13 0 0 0 3.213 3.216l.742.31c1.03.432 1.03 1.896 0 2.35l-.742.31a6.13 6.13 0 0 0-3.213 3.216l-.31.742c-.432 1.03-1.895 1.03-2.348 0l-.309-.742a6.13 6.13 0 0 0-3.214-3.217l-.741-.31c-1.03-.453-1.03-1.917 0-2.35"/></g><defs><clipPath id="a"><path fill="#fff" d="M0 0h36v36H0z"/></clipPath></defs></svg>
